Catalina-light/actions/16/edit-select-all-symbolic.svg

<?xml version="1.0" encoding="UTF-8" standalone="no"?>
<svg
   xmlns:dc="http://purl.org/dc/elements/1.1/"
   xmlns:cc="http://creativecommons.org/ns#"
   xmlns:rdf="http://www.w3.org/1999/02/22-rdf-syntax-ns#"
   xmlns:svg="http://www.w3.org/2000/svg"
   xmlns="http://www.w3.org/2000/svg"
   xmlns:sodipodi="http://sodipodi.sourceforge.net/DTD/sodipodi-0.dtd"
   xmlns:inkscape="http://www.inkscape.org/namespaces/inkscape"
   viewBox="0 0 16 16"
   id="svg3197"
   version="1.1"
   inkscape:version="0.91 r13725"
   sodipodi:docname="edit-select-all-symbolic.svg">
  <metadata
     id="metadata3205">
    <rdf:RDF>
      <cc:Work
         rdf:about="">
        <dc:format>image/svg+xml</dc:format>
        <dc:type
           rdf:resource="http://purl.org/dc/dcmitype/StillImage" />
      </cc:Work>
    </rdf:RDF>
  </metadata>
  <sodipodi:namedview
     pagecolor="#ffffff"
     bordercolor="#666666"
     borderopacity="1"
     objecttolerance="10"
     gridtolerance="10"
     guidetolerance="10"
     inkscape:pageopacity="0"
     inkscape:pageshadow="2"
     inkscape:window-width="640"
     inkscape:window-height="480"
     id="namedview3203"
     showgrid="false"
     inkscape:zoom="39.8125"
     inkscape:cx="7.0957614"
     inkscape:cy="9.0047096"
     inkscape:current-layer="svg3197" />
  <defs
     id="defs3051">
    <style
       type="text/css"
       id="current-color-scheme">
      .ColorScheme-Text {
        color:#bebebe;
      }
      </style>
  </defs>
  <path
     style="color:#bebebe;fill:currentColor;fill-opacity:1;stroke:none"
     class="ColorScheme-Text"
     d="m 4.7405701,1.9999978 -2.4376749,0.0075 c -0.077528,2.548e-4 -0.1478211,0.032699 -0.19849,0.083495 -0.050662,0.050774 -0.082564,0.120485 -0.08233,0.1977484 l 0.00881,2.42866 C 2.0313824,4.8719508 2.156613,4.9977083 2.3116983,4.9971833 2.4667611,4.9966883 2.5929854,4.8704508 2.5925186,4.7159391 l -0.00753,-2.1488858 2.1568547,-0.0075 C 4.8968972,2.5590662 5.0231514,2.4327913 5.0226622,2.2783095 5.0222406,2.1237602 4.8955346,1.9994578 4.740374,1.9999902 Z m 6.5411439,0 c -0.155161,-5.326e-4 -0.281867,0.1237699 -0.282288,0.2783192 -4.97e-4,0.1544818 0.124296,0.2807568 0.279343,0.2812442 l 2.158331,0.0075 -0.0075,2.1488782 c -4.67e-4,0.1545193 0.125757,0.2807492 0.28082,0.2812442 0.155085,5.25e-4 0.280323,-0.1252324 0.280813,-0.2797818 l 0.0088,-2.42866 c 2.33e-4,-0.07726 -0.03169,-0.1469707 -0.08233,-0.1977446 -0.05066,-0.050774 -0.120962,-0.083241 -0.198482,-0.083496 l -2.437652,-0.0075 z m -0.699842,1.504364 c -0.358295,0 -0.6883912,0.087733 -0.9909439,0.2636646 C 9.2883379,3.9439353 9.0485659,4.1828578 8.871974,4.4843217 8.6953518,4.7857929 8.6058553,5.1146687 8.6058553,5.4716089 c 0,0.3569701 0.089557,0.6872483 0.2661187,0.9887496 0.1765919,0.3014038 0.4148959,0.5403564 0.7174788,0.7162953 0.3025906,0.1759313 0.6341242,0.2636645 0.9924192,0.2636645 0.358295,0 0.688392,-0.087733 0.990952,-0.2636645 0.302553,-0.1759089 0.542361,-0.4148615 0.718954,-0.7162953 0.176554,-0.3014713 0.264643,-0.6318095 0.264643,-0.9887496 0,-0.3569702 -0.08812,-0.685846 -0.264643,-0.9872872 C 12.115185,4.1828878 11.875377,3.9439653 11.572824,3.7680264 11.270203,3.592095 10.940198,3.5043618 10.581872,3.5043618 Z m -5.1635168,0.003 c -0.3582952,0 -0.6883992,0.087733 -0.9909518,0.2636646 C 4.1248206,3.9469352 3.8850412,4.1858503 3.7084493,4.4873216 3.5318272,4.7887854 3.4438061,5.1176686 3.4438061,5.4746013 c 0,0.3569701 0.088089,0.6857858 0.2646432,0.9872872 0.1765919,0.3014038 0.4163713,0.5403564 0.7189541,0.7162953 0.3025902,0.1759389 0.6326566,0.2636645 0.9909518,0.2636645 0.3582952,0 0.6898596,-0.087726 0.9924197,-0.2636645 C 6.7133276,7.0022749 6.9516616,6.7633223 7.1282536,6.4618885 7.3048155,6.1604247 7.3943723,5.8315414 7.3943723,5.4746013 7.3943723,5.1176386 7.3047854,4.7887554 7.1282536,4.4873216 6.9516616,4.1858803 6.7133276,3.9469652 6.4107749,3.7710263 6.1081546,3.5950874 5.7766804,3.5073617 5.4183552,3.5073617 Z m 0.042607,5.0521437 c -0.3582952,0 -0.6883916,0.087726 -0.9909519,0.2636646 -0.3025832,0.1759088 -0.5423627,0.4148312 -0.7189546,0.7162952 -0.176622,0.301472 -0.2646432,0.6318097 -0.2646432,0.9887487 0,0.356971 0.088089,0.685786 0.2646432,0.987288 0.1765919,0.301404 0.4163714,0.540357 0.7189541,0.716288 0.3025903,0.175939 0.6326567,0.263672 0.9909519,0.263672 0.3582951,0 0.6883916,-0.08773 0.9909443,-0.263672 0.3025602,-0.175909 0.5423621,-0.414854 0.718954,-0.716295 0.176562,-0.301464 0.2646434,-0.630348 0.2646434,-0.987281 0,-0.356969 -0.088112,-0.6873147 -0.2646434,-0.9887487 C 6.9942681,9.2380243 6.7544662,8.9991089 6.451906,8.82317 6.149293,8.6472311 5.8192869,8.5595054 5.4609617,8.5595054 Z m 5.1208808,0 c -0.358325,0 -0.6898372,0.087711 -0.9924201,0.2636646 C 9.2868101,8.9990939 9.0470757,9.2379713 8.8704687,9.5394653 8.6938315,9.8409593 8.6058254,10.169782 8.6058254,10.526752 c 0,0.356993 0.088074,0.687226 0.2646433,0.98875 0.176607,0.301426 0.4163414,0.540342 0.7189542,0.716288 0.3026129,0.175954 0.6340951,0.263672 0.9924201,0.263672 0.358325,0 0.68837,-0.08772 0.990953,-0.263672 0.302583,-0.175916 0.542347,-0.414832 0.718954,-0.716288 0.176569,-0.301493 0.264643,-0.631787 0.264643,-0.98875 0,-0.357 -0.0881,-0.6858227 -0.264643,-0.9872867 C 12.115141,9.2380013 11.875377,8.9991239 11.572794,8.82317 11.270151,8.647216 10.940198,8.5595054 10.581842,8.5595054 Z M 2.2896314,11.002813 C 2.1345385,11.002287 2.009308,11.128045 2.0088112,11.282587 l -0.00881,2.428667 c -2.258e-4,0.07725 0.031691,0.146974 0.082338,0.197749 0.050661,0.05078 0.1209548,0.08324 0.1984825,0.08349 l 2.4376748,0.0075 c 0.1551636,5.5e-4 0.2818696,-0.123745 0.2822911,-0.278294 4.968e-4,-0.154482 -0.1242971,-0.280757 -0.2793448,-0.281244 l -2.1583301,-0.0075 0.00753,-2.14888 C 2.5710993,11.129537 2.4448827,11.0033 2.2898199,11.002813 Z m 11.3988556,0 c -0.155063,4.94e-4 -0.281287,0.126724 -0.28082,0.281243 l 0.0075,2.148879 -2.156862,0.0075 c -0.155047,4.88e-4 -0.281308,0.126762 -0.280812,0.281244 4.22e-4,0.154549 0.127127,0.278852 0.282288,0.278319 l 2.437675,-0.0075 c 0.07752,-2.54e-4 0.14782,-0.0327 0.198482,-0.08349 0.05066,-0.05078 0.08256,-0.120493 0.08234,-0.197749 l -0.0088,-2.42866 c -4.97e-4,-0.15455 -0.125727,-0.280308 -0.28082,-0.279782 z"
     id="path3201"
     inkscape:connector-curvature="0" />
</svg>

<svg version="1.1" viewBox="0 0 16 16" xmlns="http://www.w3.org/2000/svg">
<defs>
<style id="current-color-scheme" type="text/css">.ColorScheme-Text {
        color:#363636;
      }</style>
</defs>
<path class="ColorScheme-Text" d="m4.7406 2-2.4377 0.0075c-0.077528 2.548e-4 -0.14782 0.032699-0.19849 0.083495-0.050662 0.050774-0.082564 0.12048-0.08233 0.19775l0.00881 2.4287c4.972e-4 0.15455 0.12573 0.28031 0.28081 0.27978 0.15506-4.95e-4 0.28129-0.12673 0.28082-0.28124l-0.00753-2.1489 2.1569-0.0075c0.15505-4.871e-4 0.28131-0.12676 0.28082-0.28124-4.216e-4 -0.15455-0.12713-0.27885-0.28229-0.27832zm6.5411 0c-0.15516-5.326e-4 -0.28187 0.12377-0.28229 0.27832-4.97e-4 0.15448 0.1243 0.28076 0.27934 0.28124l2.1583 0.0075-0.0075 2.1489c-4.67e-4 0.15452 0.12576 0.28075 0.28082 0.28124 0.15508 5.25e-4 0.28032-0.12523 0.28081-0.27978l0.0088-2.4287c2.33e-4 -0.07726-0.03169-0.14697-0.08233-0.19774-0.05066-0.050774-0.12096-0.083241-0.19848-0.083496l-2.4377-0.0075zm-0.69984 1.5044c-0.3583 0-0.68839 0.087733-0.99094 0.26366-0.30259 0.17591-0.54236 0.41483-0.71895 0.7163-0.17662 0.30147-0.26612 0.63035-0.26612 0.98729 0 0.35697 0.089557 0.68725 0.26612 0.98875 0.17659 0.3014 0.4149 0.54036 0.71748 0.7163 0.30259 0.17593 0.63412 0.26366 0.99242 0.26366s0.68839-0.087733 0.99095-0.26366c0.30255-0.17591 0.54236-0.41486 0.71895-0.7163 0.17655-0.30147 0.26464-0.63181 0.26464-0.98875 0-0.35697-0.08812-0.68585-0.26464-0.98729-0.17659-0.30143-0.4164-0.54036-0.71895-0.7163-0.30262-0.17593-0.63263-0.26366-0.99095-0.26366zm-5.1635 3e-3c-0.3583 0-0.6884 0.087733-0.99095 0.26366-0.30258 0.17591-0.54236 0.41482-0.71895 0.7163-0.17662 0.30146-0.26464 0.63035-0.26464 0.98728 0 0.35697 0.088089 0.68579 0.26464 0.98729 0.17659 0.3014 0.41637 0.54036 0.71895 0.7163 0.30259 0.17594 0.63266 0.26366 0.99095 0.26366s0.68986-0.087726 0.99242-0.26366c0.30255-0.17591 0.54089-0.41486 0.71748-0.7163 0.17656-0.30146 0.26612-0.63035 0.26612-0.98729 0-0.35696-0.089587-0.68585-0.26612-0.98728-0.17659-0.30144-0.41493-0.54036-0.71748-0.7163-0.30262-0.17594-0.63409-0.26366-0.99242-0.26366zm0.042607 5.0521c-0.3583 0-0.68839 0.087726-0.99095 0.26366-0.30258 0.17591-0.54236 0.41483-0.71895 0.7163-0.17662 0.30147-0.26464 0.63181-0.26464 0.98875 0 0.35697 0.088089 0.68579 0.26464 0.98729 0.17659 0.3014 0.41637 0.54036 0.71895 0.71629 0.30259 0.17594 0.63266 0.26367 0.99095 0.26367 0.3583 0 0.68839-0.08773 0.99094-0.26367 0.30256-0.17591 0.54236-0.41485 0.71895-0.7163 0.17656-0.30146 0.26464-0.63035 0.26464-0.98728 0-0.35697-0.088112-0.68731-0.26464-0.98875-0.17659-0.30144-0.41639-0.54036-0.71895-0.7163-0.30261-0.17594-0.63262-0.26366-0.99094-0.26366zm5.1209 0c-0.35832 0-0.68984 0.087711-0.99242 0.26366-0.30261 0.17592-0.54235 0.4148-0.71895 0.7163-0.17664 0.30149-0.26464 0.63032-0.26464 0.98729 0 0.35699 0.088074 0.68723 0.26464 0.98875 0.17661 0.30143 0.41634 0.54034 0.71895 0.71629 0.30261 0.17595 0.6341 0.26367 0.99242 0.26367s0.68837-0.08772 0.99095-0.26367c0.30258-0.17592 0.54235-0.41483 0.71895-0.71629 0.17657-0.30149 0.26464-0.63179 0.26464-0.98875 0-0.357-0.0881-0.68582-0.26464-0.98729-0.17661-0.30146-0.41637-0.54034-0.71896-0.7163-0.30264-0.17595-0.6326-0.26366-0.99095-0.26366zm-8.2922 2.4433c-0.15509-5.26e-4 -0.28032 0.12523-0.28082 0.27977l-0.00881 2.4287c-2.258e-4 0.07725 0.031691 0.14697 0.082338 0.19775 0.050661 0.05078 0.12095 0.08324 0.19848 0.08349l2.4377 0.0075c0.15516 5.5e-4 0.28187-0.12374 0.28229-0.27829 4.968e-4 -0.15448-0.1243-0.28076-0.27934-0.28124l-2.1583-0.0075 0.00753-2.1489c4.566e-4 -0.15454-0.12576-0.28078-0.28082-0.28126zm11.399 0c-0.15506 4.94e-4 -0.28129 0.12672-0.28082 0.28124l0.0075 2.1489-2.1569 0.0075c-0.15505 4.88e-4 -0.28131 0.12676-0.28081 0.28124 4.22e-4 0.15455 0.12713 0.27885 0.28229 0.27832l2.4377-0.0075c0.07752-2.54e-4 0.14782-0.0327 0.19848-0.08349 0.05066-0.05078 0.08256-0.12049 0.08234-0.19775l-0.0088-2.4287c-4.97e-4 -0.15455-0.12573-0.28031-0.28082-0.27978z" color="#363636" fill="#363636"/>
</svg>
